packages/foundations/assets/icons/functional/images/buildings/market_12.svg

<svg width="12" height="12" viewBox="0 0 12 12" fill="none" xmlns="http://www.w3.org/2000/svg">
<g clip-path="url(#clip0_231_112)">
<path fill-rule="evenodd" clip-rule="evenodd" d="M1.8006 10.8C1.64147 10.8 1.48886 10.7368 1.37633 10.6243C1.26381 10.5117 1.2006 10.3591 1.2006 10.2C1.2006 10.0409 1.26381 9.88826 1.37633 9.77573C1.48886 9.66321 1.64147 9.6 1.8006 9.6V5.757C1.54608 5.51387 1.36235 5.2062 1.26901 4.86682C1.17566 4.52744 1.17621 4.16909 1.2706 3.83L1.7046 2.11C1.76938 1.84987 1.9194 1.61893 2.13073 1.454C2.34206 1.28907 2.60253 1.19965 2.8706 1.2H9.1306C9.6506 1.2 10.1526 1.547 10.2956 2.11L10.7376 3.83C10.7796 3.994 10.8006 4.167 10.8006 4.35C10.8006 4.903 10.5706 5.402 10.2006 5.757V9.6C10.3597 9.6 10.5123 9.66321 10.6249 9.77573C10.7374 9.88826 10.8006 10.0409 10.8006 10.2C10.8006 10.3591 10.7374 10.5117 10.6249 10.6243C10.5123 10.7368 10.3597 10.8 10.2006 10.8H1.8006ZM9.0006 8.4H3.0006V9.6H9.0006V8.4ZM7.9006 6.052C7.6103 6.21438 7.28323 6.29964 6.9506 6.29964C6.61797 6.29964 6.2909 6.21438 6.0006 6.052C5.71078 6.2156 5.38341 6.30106 5.0506 6.3C4.71779 6.30106 4.39042 6.2156 4.1006 6.052C3.7476 6.242 3.3806 6.323 3.0006 6.294V7.2H9.0006V6.3C8.61756 6.32687 8.23506 6.24063 7.9006 6.052ZM9.1306 2.4H2.8706L2.4246 4.206C2.4126 4.26 2.4016 4.293 2.4016 4.35C2.4016 4.764 2.7376 5.1 3.1516 5.1C3.4526 5.1 3.7696 4.89 4.1016 4.47C4.4466 4.89 4.7636 5.1 5.0516 5.1C5.3396 5.1 5.6566 4.89 6.0016 4.47C6.3586 4.89 6.6756 5.1 6.9516 5.1C7.2276 5.1 7.5436 4.89 7.9006 4.47C8.2506 4.89 8.5676 5.1 8.8516 5.1C9.05051 5.1 9.24128 5.02098 9.38193 4.88033C9.52258 4.73968 9.6016 4.54891 9.6016 4.35C9.6016 4.288 9.6016 4.265 9.5876 4.206L9.1306 2.4Z" fill="#1A1C1F"/>
</g>
<defs>
<clipPath id="clip0_231_112">
<rect width="12" height="12" fill="white"/>
</clipPath>
</defs>
</svg>

<svg xmlns="http://www.w3.org/2000/svg" width="12" height="12" fill="none"><g clip-path="url(#a)"><path fill="#1A1C1F" fill-rule="evenodd" d="M1.8 10.8a.6.6 0 1 1 0-1.2V5.757a1.94 1.94 0 0 1-.53-1.927l.435-1.72A1.2 1.2 0 0 1 2.87 1.2h6.26c.52 0 1.022.347 1.165.91l.442 1.72q.063.246.063.52c0 .553-.23 1.052-.6 1.407V9.6a.6.6 0 0 1 0 1.2zM9 8.4H3v1.2h6zM7.9 6.052a1.95 1.95 0 0 1-1.9 0 1.9 1.9 0 0 1-.95.248 1.9 1.9 0 0 1-.95-.248q-.529.285-1.1.242V7.2h6v-.9a1.96 1.96 0 0 1-1.1-.248M9.13 2.4H2.87l-.445 1.806c-.012.054-.023.087-.023.144 0 .414.336.75.75.75q.451 0 .95-.63.518.63.95.63t.95-.63q.536.63.95.63t.949-.63q.525.63.95.63a.75.75 0 0 0 .75-.75c0-.062 0-.085-.013-.144z" clip-rule="evenodd"/></g><defs><clipPath id="a"><path fill="#fff" d="M0 0h12v12H0z"/></clipPath></defs></svg>
